X: 1008
T: Her Ne Dem Ol
C: Ahmet Avni Konuk
O: Turkey
F: http://compmusic.upf.edu/node/140
N: mahur--kupe--devrirevanihindi--her_ne--ahmet_avni_konuk
N: makam= mahur
N: form= kupe
N: usul= devrirevanihindi = 14/8
M: 14/8
L: 1/16
K: C ^9/8f   
Q: 1/4=102
%%MIDI tuningsystem comma53
gfe2 f2g8a4ag ag^f^e f2z2  | ^3/4fgf2 e2fg fef2 g2a2 g2^2/4f2 e2=fe d2z2  | 
w:  Her  *  *  ne  dem  ol   |  iş *  *  ve bâ *  *  *  *  *  zın   | 
efe2 f2g2 gfg2 z2c'4c'2 c'b2a _1/4bag2  | \
w:  nağ *  *  me si  *  *  *  Mâ  | 
a_bab agac' _3/4baag gfg2 f2ag g6z2  | 
w:  hur  *  *  *  *  *  *  *  *  *  o *  *  *  lur    | 
e2e2 ^3/4f2g2 fef2 e2a2 g2f2 agfe d4  | \
w:  Sabr_ *  ü  tâ *  *  *  *  kat   | 
d2d2 a2g2 =f2e2 d2de d2dc dcB^A B2z2  | 
w:  â *  şı kı  *  *  *  mih  | 
A2{_1/4B}A2 B2c3ed2 c2B2 A2B2 dcBA G2z2  | \
w:  net *  *  ke şan *  *  *  dan   | 
A_7/8BAB AGAc _1/4BAAG GFG2 F2AG G6z2  | 
w:  dûr  *  *  *  *  *  *  *  *  *  o *  *  *  lur    | 
|


